; generated by PrusaSlicer 2.1.1+win64 on 2020-01-28 at 05:30:16 UTC

; 

; external perimeters extrusion width = 0.45mm
; perimeters extrusion width = 0.45mm
; infill extrusion width = 0.45mm
; solid infill extrusion width = 0.45mm
; top infill extrusion width = 0.40mm
; first layer extrusion width = 0.42mm

M73 P0 R17
M73 Q0 S18
M201 X1000 Y1000 Z1000 E5000 ; sets maximum accelerations, mm/sec^2
M203 X200 Y200 Z12 E120 ; sets maximum feedrates, mm/sec
M204 P1250 R1250 T1250 ; sets acceleration (P, T) and retract acceleration (R), mm/sec^2
M205 X8.00 Y8.00 Z0.40 E1.50 ; sets the jerk limits, mm/sec
M205 S0 T0 ; sets the minimum extruding and travel feed rate, mm/sec
M107
M862.3 P "MK3SMMU2S" ; printer model check
M862.1 P0.4 ; nozzle diameter check
M115 U3.8.1 ; tell printer latest fw version
G90 ; use absolute coordinates
M83 ; extruder relative mode
M104 S230 ; set extruder temp
M140 S85 ; set bed temp
Tx
M190 S85 ; wait for bed temp
M109 S230 ; wait for extruder temp
G28 W ; home all without mesh bed level
G80 ; mesh bed leveling

;go outside print area
G1 Y-3.0 F1000.0
G1 Z0.4 F1000.0
; select extruder
Tc
; purge line
G1 X55.0 F2000.0
G1 Z0.3 F1000.0
G92 E0.0
G1 X240.0 E25.0 F2200.0
M73 Q0 S17
M73 P0 R17
G1 Y-2.0 F1000.0
G1 X55.0 E25 F1400.0
G1 Z0.20 F1000.0
G1 X5.0 E4.0 F1000.0

M221 S100
G92 E0.0
G21 ; set units to millimeters
G90 ; use absolute coordinates
M83 ; use relative distances for extrusion
M900 K45 ; Filament gcode
;BEFORE_LAYER_CHANGE
G92 E0.0
;0.2


G1 E-1.40000 F2100.00000
G1 Z0.200 F10800.000
;AFTER_LAYER_CHANGE
;0.2
G1 Z0.400
G1 X115.316 Y100.789
G1 Z0.200
G1 E1.40000 F2100.00000
M204 S500
G1 F1184
G1 X116.325 Y99.981 E0.04054
G1 X127.674 Y93.422 E0.41099
G1 X128.914 Y92.925 E0.04187
G1 X129.884 Y92.732 E0.03101
G1 X130.865 Y92.718 E0.03076
G1 X131.372 Y92.769 E0.01598
G1 X132.519 Y93.054 E0.03705
G1 X133.492 Y93.504 E0.03361
G1 X134.405 Y94.158 E0.03523
G1 X135.428 Y95.320 E0.04852
G1 X135.935 Y96.224 E0.03250
G1 X136.268 Y97.206 E0.03250
G1 X136.448 Y98.608 E0.04434
G1 X136.447 Y111.444 E0.40245
G1 X136.314 Y112.615 E0.03697
G1 X135.930 Y113.788 E0.03869
G1 X135.314 Y114.852 E0.03856
G1 X134.497 Y115.762 E0.03832
G1 X133.488 Y116.499 E0.03918
G1 X132.385 Y116.996 E0.03795
G1 X131.176 Y117.263 E0.03881
G1 X130.073 Y117.281 E0.03460
G1 X128.729 Y117.027 E0.04287
G1 X127.607 Y116.543 E0.03831
G1 X116.508 Y110.136 E0.40183
G1 X115.697 Y109.562 E0.03115
G1 X114.724 Y108.542 E0.04421
G1 X114.080 Y107.448 E0.03980
G1 X113.679 Y106.223 E0.04041
G1 X113.553 Y104.916 E0.04115
G1 X113.698 Y103.691 E0.03868
G1 X114.172 Y102.372 E0.04396
G1 X114.684 Y101.511 E0.03138
G1 X115.276 Y100.834 E0.02821
M204 S1000
G1 X115.560 Y101.083 F10800.000
M204 S500
G1 F1184
G1 X115.610 Y101.025 E0.00239
G1 X116.551 Y100.284 E0.03756
G1 X127.840 Y93.761 E0.40879
G1 X128.995 Y93.293 E0.03909
G1 X129.924 Y93.107 E0.02972
G1 X130.865 Y93.095 E0.02949
G1 X132.383 Y93.406 E0.04858
G1 X133.303 Y93.830 E0.03178
G1 X134.174 Y94.456 E0.03361
G1 X135.112 Y95.526 E0.04463
G1 X135.592 Y96.381 E0.03075
G1 X135.915 Y97.342 E0.03178
G1 X136.071 Y98.615 E0.04021
G1 X136.070 Y111.434 E0.40192
G1 X135.946 Y112.532 E0.03467
G1 X135.585 Y113.634 E0.03635
G1 X135.008 Y114.631 E0.03612
G1 X134.243 Y115.483 E0.03589
G1 X133.298 Y116.173 E0.03669
G1 X132.258 Y116.641 E0.03578
G1 X131.125 Y116.889 E0.03635
G1 X130.083 Y116.904 E0.03269
G1 X128.834 Y116.665 E0.03987
G1 X127.784 Y116.210 E0.03589
G1 X116.698 Y109.810 E0.40135
G1 X115.930 Y109.265 E0.02952
G1 X115.021 Y108.310 E0.04133
G1 X114.421 Y107.288 E0.03715
G1 X114.049 Y106.148 E0.03760
G1 X113.930 Y104.929 E0.03840
G1 X114.064 Y103.785 E0.03612
G1 X114.502 Y102.554 E0.04099
G1 X114.990 Y101.732 E0.02995
G1 X115.520 Y101.128 E0.02522
M204 S1000
G1 F8640
G1 X115.610 Y101.025 E-0.03147
G1 X116.551 Y100.284 E-0.27661
G1 X120.383 Y98.070 E-1.02193
G1 E-0.07000 F2100.00000
G1 Z0.400 F10800.000
G1 X127.949 Y109.501
G1 Z0.200
G1 E1.40000 F2100.00000
M204 S500
G1 F1184
G1 X128.392 Y109.010 E0.02073
G1 X128.927 Y108.621 E0.02073
G1 X129.531 Y108.352 E0.02073
G1 X130.178 Y108.215 E0.02073
G1 X130.839 Y108.215 E0.02073
G1 X131.472 Y108.349 E0.02028
G1 X132.090 Y108.621 E0.02119
G1 X132.625 Y109.010 E0.02072
G1 X133.067 Y109.501 E0.02073
G1 X133.398 Y110.074 E0.02073
G1 X133.602 Y110.703 E0.02073
G1 X133.672 Y111.361 E0.02073
G1 X133.602 Y112.018 E0.02073
G1 X133.398 Y112.647 E0.02073
G1 X133.067 Y113.220 E0.02073
G1 X132.625 Y113.711 E0.02073
G1 X132.090 Y114.100 E0.02073
G1 X131.486 Y114.369 E0.02073
G1 X130.839 Y114.506 E0.02073
G1 X130.178 Y114.506 E0.02073
G1 X129.531 Y114.369 E0.02073
G1 X128.927 Y114.100 E0.02073
G1 X128.392 Y113.711 E0.02073
G1 X127.949 Y113.220 E0.02073
G1 X127.619 Y112.647 E0.02073
G1 X127.414 Y112.018 E0.02073
G1 X127.345 Y111.361 E0.02073
G1 X127.414 Y110.703 E0.02073
G1 X127.619 Y110.074 E0.02073
G1 X127.919 Y109.553 E0.01885
M204 S1000
G1 X128.347 Y109.543 F10800.000
G1 X128.246 Y109.742
M204 S500
G1 F1184
G1 X128.646 Y109.292 E0.01887
G1 X129.116 Y108.950 E0.01825
G1 X129.648 Y108.713 E0.01825
G1 X130.217 Y108.592 E0.01825
G1 X130.799 Y108.592 E0.01825
G1 X131.355 Y108.710 E0.01782
G1 X131.901 Y108.950 E0.01871
G1 X132.371 Y109.292 E0.01821
G1 X132.761 Y109.724 E0.01825
G1 X133.052 Y110.228 E0.01825
G1 X133.232 Y110.782 E0.01825
G1 X133.292 Y111.361 E0.01825
G1 X133.232 Y111.939 E0.01825
G1 X133.052 Y112.493 E0.01825
G1 X132.761 Y112.997 E0.01825
G1 X132.371 Y113.429 E0.01825
G1 X131.900 Y113.772 E0.01825
G1 X131.369 Y114.008 E0.01825
G1 X130.799 Y114.129 E0.01825
G1 X130.217 Y114.129 E0.01825
G1 X129.648 Y114.008 E0.01825
G1 X129.116 Y113.772 E0.01825
G1 X128.646 Y113.429 E0.01825
G1 X128.256 Y112.997 E0.01825
G1 X127.965 Y112.493 E0.01825
G1 X127.785 Y111.939 E0.01825
G1 X127.724 Y111.361 E0.01825
G1 X127.785 Y110.782 E0.01825
G1 X127.965 Y110.228 E0.01825
G1 X128.216 Y109.794 E0.01573
M204 S1000
G1 F8640
G1 X128.646 Y109.292 E-0.15259
G1 X129.116 Y108.950 E-0.13439
G1 X129.648 Y108.713 E-0.13439
G1 X130.217 Y108.592 E-0.13439
G1 X130.799 Y108.592 E-0.13439
G1 X131.355 Y108.710 E-0.13124
G1 X131.901 Y108.950 E-0.13776
G1 X132.371 Y109.292 E-0.13409
G1 X132.761 Y109.724 E-0.13439
G1 X132.982 Y110.108 E-0.10239
G1 E-0.07000 F2100.00000
G1 Z0.400 F10800.000
G1 X128.275 Y111.151
G1 Z0.200
G1 E1.40000 F2100.00000
M204 S500
G1 F1184
G1 X128.352 Y111.151 E0.00241
G1 X128.362 Y110.919 E0.00725
G1 X128.486 Y110.466 E0.01475
G1 X128.720 Y110.061 E0.01466
G1 X129.029 Y109.717 E0.01449
G1 X129.403 Y109.446 E0.01449
G1 X129.825 Y109.258 E0.01449
G1 X130.277 Y109.162 E0.01449
G1 X130.740 Y109.162 E0.01449
G1 X131.194 Y109.258 E0.01458
G1 X131.663 Y109.481 E0.01627
G1 X131.988 Y109.717 E0.01260
G1 X132.297 Y110.061 E0.01449
G1 X132.528 Y110.461 E0.01449
G1 X132.671 Y110.901 E0.01449
G1 X132.720 Y111.361 E0.01449
G1 X132.671 Y111.820 E0.01449
G1 X132.528 Y112.260 E0.01449
G1 X132.297 Y112.660 E0.01449
G1 X131.988 Y113.004 E0.01449
G1 X131.614 Y113.275 E0.01449
G1 X131.192 Y113.463 E0.01449
G1 X130.740 Y113.560 E0.01449
G1 X130.277 Y113.560 E0.01449
G1 X129.824 Y113.463 E0.01454
G1 X129.379 Y113.258 E0.01537
G1 X129.029 Y113.004 E0.01356
G1 X128.720 Y112.660 E0.01449
G1 X128.488 Y112.260 E0.01449
G1 X128.346 Y111.820 E0.01449
G1 X128.281 Y111.210 E0.01923
M204 S1000
G1 X128.270 Y111.074 F10800.000
G1 X127.856 Y110.773
M204 S500
G1 F1184
G1 X128.011 Y110.773 E0.00486
G1 X128.135 Y110.319 E0.01475
G1 X128.413 Y109.838 E0.01743
G1 X128.775 Y109.436 E0.01698
G1 X129.213 Y109.117 E0.01698
G1 X129.708 Y108.897 E0.01698
G1 X130.238 Y108.784 E0.01698
G1 X130.779 Y108.784 E0.01698
G1 X131.316 Y108.899 E0.01721
G1 X131.856 Y109.156 E0.01876
G1 X132.242 Y109.436 E0.01493
G1 X132.604 Y109.838 E0.01698
G1 X132.875 Y110.307 E0.01698
G1 X133.042 Y110.822 E0.01698
G1 X133.099 Y111.361 E0.01698
G1 X133.042 Y111.899 E0.01698
G1 X132.875 Y112.414 E0.01698
G1 X132.604 Y112.883 E0.01698
G1 X132.242 Y113.286 E0.01698
G1 X131.804 Y113.604 E0.01698
G1 X131.309 Y113.824 E0.01698
G1 X130.779 Y113.937 E0.01698
G1 X130.238 Y113.937 E0.01698
G1 X129.704 Y113.823 E0.01710
G1 X129.187 Y113.585 E0.01785
G1 X128.775 Y113.286 E0.01596
G1 X128.413 Y112.883 E0.01698
G1 X128.142 Y112.414 E0.01698
G1 X127.975 Y111.899 E0.01698
G1 X127.863 Y110.833 E0.03361
M204 S1000
G1 F8640
G1 X128.011 Y110.773 E-0.03699
G1 X128.135 Y110.319 E-0.10864
G1 X128.413 Y109.838 E-0.12837
G1 X128.775 Y109.436 E-0.12504
G1 X129.213 Y109.117 E-0.12504
G1 X129.708 Y108.897 E-0.12504
G1 X130.238 Y108.784 E-0.12504
G1 X130.779 Y108.784 E-0.12504
G1 X131.316 Y108.899 E-0.12677
G1 X131.856 Y109.156 E-0.13815
G1 X132.242 Y109.436 E-0.10995
G1 X132.404 Y109.616 E-0.05593
G1 E-0.07000 F2100.00000
G1 Z0.400 F10800.000
G1 X129.531 Y101.648
G1 Z0.200
G1 E1.40000 F2100.00000
M204 S500
G1 F1184
G1 X128.927 Y101.379 E0.02073
G1 X128.392 Y100.990 E0.02073
G1 X127.949 Y100.499 E0.02073
G1 X127.619 Y99.926 E0.02073
G1 X127.414 Y99.297 E0.02073
G1 X127.345 Y98.639 E0.02073
G1 X127.414 Y97.982 E0.02073
G1 X127.619 Y97.353 E0.02073
G1 X127.949 Y96.780 E0.02073
G1 X128.392 Y96.289 E0.02073
G1 X128.927 Y95.900 E0.02073
G1 X129.531 Y95.631 E0.02073
G1 X130.178 Y95.494 E0.02073
G1 X130.839 Y95.494 E0.02073
G1 X131.472 Y95.628 E0.02028
G1 X132.090 Y95.900 E0.02119
G1 X132.625 Y96.289 E0.02072
G1 X133.067 Y96.780 E0.02073
G1 X133.398 Y97.353 E0.02073
G1 X133.602 Y97.982 E0.02073
G1 X133.672 Y98.639 E0.02073
G1 X133.602 Y99.297 E0.02073
G1 X133.398 Y99.926 E0.02073
G1 X133.067 Y100.499 E0.02073
G1 X132.625 Y100.990 E0.02073
G1 X132.090 Y101.379 E0.02073
G1 X131.486 Y101.648 E0.02073
G1 X130.839 Y101.785 E0.02073
G1 X130.178 Y101.785 E0.02073
G1 X129.590 Y101.660 E0.01885
M204 S1000
G1 X129.448 Y101.257 F10800.000
G1 X129.668 Y101.291
M204 S500
G1 F1184
G1 X129.116 Y101.050 E0.01887
G1 X128.646 Y100.708 E0.01825
G1 X128.256 Y100.276 E0.01825
G1 X127.965 Y99.772 E0.01825
G1 X127.785 Y99.218 E0.01825
G1 X127.724 Y98.639 E0.01825
G1 X127.785 Y98.061 E0.01825
G1 X127.965 Y97.507 E0.01825
G1 X128.256 Y97.003 E0.01825
G1 X128.646 Y96.571 E0.01825
G1 X129.116 Y96.228 E0.01825
G1 X129.648 Y95.992 E0.01825
G1 X130.217 Y95.871 E0.01825
G1 X130.799 Y95.871 E0.01825
G1 X131.355 Y95.989 E0.01782
G1 X131.901 Y96.229 E0.01871
G1 X132.371 Y96.571 E0.01821
G1 X132.761 Y97.003 E0.01825
G1 X133.052 Y97.507 E0.01825
G1 X133.232 Y98.061 E0.01825
G1 X133.292 Y98.639 E0.01825
G1 X133.232 Y99.218 E0.01825
G1 X133.052 Y99.772 E0.01825
G1 X132.761 Y100.276 E0.01825
G1 X132.371 Y100.708 E0.01825
G1 X131.900 Y101.050 E0.01825
G1 X131.369 Y101.287 E0.01825
G1 X130.799 Y101.408 E0.01825
G1 X130.217 Y101.408 E0.01825
G1 X129.727 Y101.304 E0.01573
M204 S1000
G1 F8640
G1 X129.116 Y101.050 E-0.15259
G1 X128.646 Y100.708 E-0.13439
G1 X128.256 Y100.276 E-0.13439
G1 X127.965 Y99.772 E-0.13439
G1 X127.785 Y99.218 E-0.13439
G1 X127.724 Y98.639 E-0.13439
G1 X127.785 Y98.061 E-0.13439
G1 X127.965 Y97.507 E-0.13439
G1 X128.256 Y97.003 E-0.13439
G1 X128.553 Y96.674 E-0.10231
G1 E-0.07000 F2100.00000
G1 Z0.400 F10800.000
G1 X128.275 Y98.429
G1 Z0.200
G1 E1.40000 F2100.00000
M204 S500
G1 F1184
G1 X128.352 Y98.429 E0.00241
G1 X128.362 Y98.198 E0.00725
G1 X128.486 Y97.745 E0.01475
G1 X128.720 Y97.340 E0.01466
G1 X129.029 Y96.996 E0.01449
G1 X129.403 Y96.725 E0.01449
G1 X129.825 Y96.537 E0.01449
G1 X130.277 Y96.440 E0.01449
G1 X130.740 Y96.440 E0.01449
G1 X131.194 Y96.537 E0.01458
G1 X131.663 Y96.760 E0.01627
G1 X131.988 Y96.996 E0.01260
G1 X132.297 Y97.340 E0.01449
G1 X132.528 Y97.740 E0.01449
G1 X132.671 Y98.180 E0.01449
G1 X132.720 Y98.639 E0.01449
G1 X132.671 Y99.099 E0.01449
G1 X132.528 Y99.539 E0.01449
G1 X132.297 Y99.939 E0.01449
G1 X131.988 Y100.283 E0.01449
G1 X131.614 Y100.554 E0.01449
G1 X131.192 Y100.742 E0.01449
G1 X130.740 Y100.838 E0.01449
G1 X130.277 Y100.838 E0.01449
G1 X129.824 Y100.742 E0.01454
G1 X129.379 Y100.537 E0.01537
G1 X129.029 Y100.283 E0.01356
G1 X128.720 Y99.939 E0.01449
G1 X128.488 Y99.539 E0.01449
G1 X128.346 Y99.099 E0.01449
G1 X128.281 Y98.489 E0.01923
M204 S1000
G1 X128.270 Y98.353 F10800.000
G1 X127.856 Y98.052
M204 S500
G1 F1184
G1 X128.011 Y98.052 E0.00486
G1 X128.135 Y97.598 E0.01475
G1 X128.413 Y97.117 E0.01743
G1 X128.775 Y96.714 E0.01698
G1 X129.213 Y96.396 E0.01698
G1 X129.708 Y96.176 E0.01698
G1 X130.238 Y96.063 E0.01698
G1 X130.779 Y96.063 E0.01698
G1 X131.316 Y96.177 E0.01721
G1 X131.856 Y96.435 E0.01876
G1 X132.242 Y96.714 E0.01493
G1 X132.604 Y97.117 E0.01698
G1 X132.875 Y97.586 E0.01698
G1 X133.042 Y98.101 E0.01698
G1 X133.099 Y98.639 E0.01698
G1 X133.042 Y99.178 E0.01698
G1 X132.875 Y99.693 E0.01698
G1 X132.604 Y100.162 E0.01698
G1 X132.242 Y100.564 E0.01698
G1 X131.804 Y100.883 E0.01698
G1 X131.309 Y101.103 E0.01698
G1 X130.779 Y101.216 E0.01698
G1 X130.238 Y101.216 E0.01698
G1 X129.704 Y101.102 E0.01710
G1 X129.187 Y100.864 E0.01785
G1 X128.775 Y100.564 E0.01596
G1 X128.413 Y100.162 E0.01698
G1 X128.142 Y99.693 E0.01698
G1 X127.975 Y99.178 E0.01698
G1 X127.863 Y98.112 E0.03361
M204 S1000
G1 F8640
G1 X128.011 Y98.052 E-0.03699
G1 X128.135 Y97.598 E-0.10864
G1 X128.413 Y97.117 E-0.12837
G1 X128.775 Y96.714 E-0.12504
G1 X129.213 Y96.396 E-0.12504
G1 X129.708 Y96.176 E-0.12504
G1 X130.238 Y96.063 E-0.12504
G1 X130.779 Y96.063 E-0.12504
G1 X131.316 Y96.177 E-0.12677
G1 X131.856 Y96.435 E-0.13815
G1 X132.242 Y96.714 E-0.10995
G1 X132.404 Y96.895 E-0.05593
G1 E-0.07000 F2100.00000
G1 Z0.400 F10800.000
G1 X122.051 Y103.141
G1 Z0.200
G1 E1.40000 F2100.00000
M204 S500
G1 F1184
G1 X122.381 Y103.713 E0.02073
G1 X122.586 Y104.342 E0.02073
G1 X122.655 Y105.000 E0.02073
G1 X122.586 Y105.658 E0.02073
G1 X122.381 Y106.287 E0.02073
G1 X122.051 Y106.859 E0.02073
G1 X121.608 Y107.351 E0.02073
G1 X121.073 Y107.739 E0.02073
G1 X120.469 Y108.008 E0.02073
G1 X119.822 Y108.146 E0.02073
G1 X119.161 Y108.146 E0.02073
G1 X118.514 Y108.008 E0.02073
G1 X117.910 Y107.739 E0.02073
G1 X117.375 Y107.351 E0.02073
G1 X116.933 Y106.859 E0.02073
G1 X116.602 Y106.287 E0.02073
G1 X116.398 Y105.658 E0.02073
G1 X116.328 Y105.000 E0.02073
G1 X116.398 Y104.342 E0.02073
G1 X116.602 Y103.713 E0.02073
G1 X116.933 Y103.141 E0.02073
G1 X117.375 Y102.649 E0.02073
G1 X117.910 Y102.261 E0.02073
G1 X118.514 Y101.992 E0.02073
G1 X119.161 Y101.854 E0.02073
G1 X119.822 Y101.854 E0.02073
G1 X120.455 Y101.989 E0.02028
G1 X121.074 Y102.261 E0.02119
G1 X121.608 Y102.649 E0.02072
G1 X122.010 Y103.096 E0.01885
M204 S1000
G1 X121.888 Y103.506 F10800.000
G1 X121.730 Y103.348
M204 S500
G1 F1184
G1 X122.035 Y103.868 E0.01887
G1 X122.215 Y104.421 E0.01825
G1 X122.276 Y105.000 E0.01825
G1 X122.215 Y105.579 E0.01825
G1 X122.035 Y106.132 E0.01825
G1 X121.744 Y106.636 E0.01825
G1 X121.354 Y107.069 E0.01825
G1 X120.884 Y107.411 E0.01825
G1 X120.352 Y107.648 E0.01825
G1 X119.783 Y107.769 E0.01825
G1 X119.201 Y107.769 E0.01825
G1 X118.631 Y107.648 E0.01825
G1 X118.100 Y107.411 E0.01825
G1 X117.629 Y107.069 E0.01825
G1 X117.239 Y106.636 E0.01825
G1 X116.948 Y106.132 E0.01825
G1 X116.768 Y105.579 E0.01825
G1 X116.708 Y105.000 E0.01825
G1 X116.768 Y104.421 E0.01825
G1 X116.948 Y103.868 E0.01825
G1 X117.239 Y103.364 E0.01825
G1 X117.629 Y102.931 E0.01825
G1 X118.100 Y102.589 E0.01825
G1 X118.631 Y102.352 E0.01825
G1 X119.201 Y102.231 E0.01825
G1 X119.783 Y102.231 E0.01825
G1 X120.339 Y102.349 E0.01782
G1 X120.885 Y102.590 E0.01871
G1 X121.354 Y102.931 E0.01821
G1 X121.690 Y103.304 E0.01573
M204 S1000
G1 F8640
G1 X122.035 Y103.868 E-0.15259
G1 X122.215 Y104.421 E-0.13439
G1 X122.276 Y105.000 E-0.13439
G1 X122.215 Y105.579 E-0.13439
G1 X122.035 Y106.132 E-0.13439
G1 X121.744 Y106.636 E-0.13439
G1 X121.354 Y107.069 E-0.13439
G1 X120.884 Y107.411 E-0.13439
G1 X120.352 Y107.648 E-0.13439
G1 X119.918 Y107.740 E-0.10231
G1 E-0.07000 F2100.00000
G1 Z0.400 F10800.000
G1 X117.258 Y104.790
G1 Z0.200
G1 E1.40000 F2100.00000
M204 S500
G1 F1184
G1 X117.335 Y104.790 E0.00241
G1 X117.346 Y104.559 E0.00725
G1 X117.469 Y104.105 E0.01475
G1 X117.703 Y103.700 E0.01466
G1 X118.012 Y103.357 E0.01449
G1 X118.386 Y103.085 E0.01449
G1 X118.808 Y102.897 E0.01449
G1 X119.260 Y102.801 E0.01449
G1 X119.723 Y102.801 E0.01449
